round/svg/access_alarm.svg

<svg xmlns="http://www.w3.org/2000/svg" width="24" height="24"><path fill="none" d="M0 0h24v24H0V0z"/><g fill="currentColor"><path d="M15.87 15.25l-3.37-2V8.72c0-.4-.32-.72-.72-.72h-.06c-.4 0-.72.32-.72.72v4.72c0 .35.18.68.49.86l3.65 2.19c.34.2.78.1.98-.24.21-.35.1-.8-.25-1zM21.18 5.01L18.1 2.45c-.42-.35-1.05-.3-1.41.13-.35.42-.29 1.05.13 1.41l3.07 2.56c.42.35 1.05.3 1.41-.13a1 1 0 0 0-.12-1.41zM4.1 6.55l3.07-2.56c.43-.36.49-.99.13-1.41a.988.988 0 0 0-1.4-.13L2.82 5.01a1 1 0 0 0-.12 1.41c.35.43.98.48 1.4.13z"/><path d="M12 4a9 9 0 1 0 .001 18.001A9 9 0 0 0 12 4zm0 16c-3.86 0-7-3.14-7-7s3.14-7 7-7 7 3.14 7 7-3.14 7-7 7z"/></g></svg>

<?xml version="1.0" encoding="utf-8"?>
<!-- Generator: Adobe Illustrator 19.1.0, SVG Export Plug-In . SVG Version: 6.00 Build 0)  -->
<svg version="1.1" xmlns="http://www.w3.org/2000/svg" xmlns:xlink="http://www.w3.org/1999/xlink" x="0px" y="0px" width="24px"
	 height="24px" viewBox="0 0 24 24" enable-background="new 0 0 24 24" xml:space="preserve">
<g id="Bounding_Boxes">
	<g id="ui_x5F_spec_x5F_header_copy_3">
	</g>
	<path fill="none" d="M0,0h24v24H0V0z"/>
</g>
<g id="Rounded" fill="currentColor">
	<g id="ui_x5F_spec_x5F_header_copy_6">
	</g>
	<g>
		<path d="M15.87,15.25l-3.37-2V8.72c0-0.4-0.32-0.72-0.72-0.72h-0.06C11.32,8,11,8.32,11,8.72v4.72c0,0.35,0.18,0.68,0.49,0.86
			l3.65,2.19c0.34,0.2,0.78,0.1,0.98-0.24C16.33,15.9,16.22,15.45,15.87,15.25z"/>
		<path d="M21.18,5.01L18.1,2.45c-0.42-0.35-1.05-0.3-1.41,0.13C16.34,3,16.4,3.63,16.82,3.99l3.07,2.56
			c0.42,0.35,1.05,0.3,1.41-0.13C21.66,6,21.6,5.37,21.18,5.01z"/>
		<path d="M4.1,6.55l3.07-2.56C7.6,3.63,7.66,3,7.3,2.58C6.95,2.15,6.32,2.1,5.9,2.45L2.82,5.01C2.4,5.37,2.34,6,2.7,6.42
			C3.05,6.85,3.68,6.9,4.1,6.55z"/>
		<path d="M12,4c-4.97,0-9,4.03-9,9c0,4.97,4.03,9,9,9s9-4.03,9-9C21,8.03,16.97,4,12,4z M12,20c-3.86,0-7-3.14-7-7s3.14-7,7-7
			s7,3.14,7,7S15.86,20,12,20z"/>
	</g>
</g>
</svg>
